src/img/icon-twitter.svg

<?xml version="1.0" encoding="UTF-8" standalone="no"?>
<svg width="36px" height="36px" viewBox="0 0 36 36" version="1.1" xmlns="http://www.w3.org/2000/svg" xmlns:xlink="http://www.w3.org/1999/xlink">
    <!-- Generator: sketchtool 3.7 (28169) - http://www.bohemiancoding.com/sketch -->
    <title>CC976B33-94CD-4BB0-B8B2-4D0EAFDF2105</title>
    <desc>Created with sketchtool.</desc>
    <defs></defs>
    <g id="Page-1" stroke="none" stroke-width="1" fill="none" fill-rule="evenodd">
        <g id="desktop" transform="translate(-1075.000000, -8800.000000)" fill="#FFFFFF">
            <g id="footer" transform="translate(0.000000, 8400.000000)">
                <g id="Group-10" transform="translate(963.000000, 388.000000)">
                    <g id="fb_icon-copy" transform="translate(100.000000, 0.000000)">
                        <g id="icon_twitter" transform="translate(12.000000, 12.000000)">
                            <path d="M29.0063426,10.9010512 C30.2263316,10.1697531 31.1631559,9.0118117 31.6043367,7.63212115 C30.4627236,8.30916712 29.198174,8.80091298 27.8522989,9.06595852 C26.774419,7.91760342 25.2388193,7.2 23.5394096,7.2 C20.2761681,7.2 17.6305585,9.84550422 17.6305585,13.1085351 C17.6305585,13.5716273 17.6829145,14.0226051 17.7836234,14.4550422 C12.8729068,14.2086426 8.51914408,11.8563108 5.60490728,8.28156699 C5.09630638,9.1542368 4.80492483,10.1692264 4.80492483,11.2520575 C4.80492483,13.3019467 5.8481466,15.1104927 7.43357402,16.1700428 C6.46493581,16.1393877 5.55392077,15.8736047 4.75720399,15.4310545 C4.75678262,15.455705 4.75678262,15.4804609 4.75678262,15.5053221 C4.75678262,18.368151 6.79350379,20.7562998 9.49652584,21.2990322 C9.00067157,21.4340832 8.47869198,21.5062438 7.939752,21.5062438 C7.55903874,21.5062438 7.18885987,21.4692681 6.82816197,21.4002677 C7.58000219,23.7477538 9.7620981,25.4560123 12.3476616,25.5037331 C10.3254779,27.0884231 7.77773291,28.0330429 5.00950291,28.0330429 C4.53261056,28.0330429 4.06224953,28.0051267 3.6,27.9505585 C6.21484912,29.6270032 9.32070668,30.6051224 12.6574783,30.6051224 C23.5256096,30.6051224 29.4686975,21.6016855 29.4686975,13.7936925 C29.4686975,13.5374959 29.4630089,13.2826687 29.4516317,13.0293164 C30.6059914,12.1962559 31.607813,11.1555624 32.4,9.97065291 C31.3403446,10.4405926 30.2015758,10.7582048 29.0063426,10.9010512 Z" id="Fill-1"></path>
                        </g>
                    </g>
                </g>
            </g>
        </g>
    </g>
</svg>

<svg width="36" height="36" viewBox="0 0 36 36" xmlns="http://www.w3.org/2000/svg"><title>CC976B33-94CD-4BB0-B8B2-4D0EAFDF2105</title><path d="M29.006 10.901a5.926 5.926 0 0 0 2.598-3.269 11.833 11.833 0 0 1-3.752 1.434A5.901 5.901 0 0 0 23.54 7.2a5.909 5.909 0 0 0-5.755 7.255 16.775 16.775 0 0 1-12.18-6.173 5.88 5.88 0 0 0-.8 2.97 5.906 5.906 0 0 0 2.63 4.918 5.885 5.885 0 0 1-2.677-.739v.074a5.912 5.912 0 0 0 4.74 5.794 5.917 5.917 0 0 1-2.669.101 5.914 5.914 0 0 0 5.52 4.104 11.856 11.856 0 0 1-7.338 2.529c-.477 0-.948-.028-1.41-.082a16.724 16.724 0 0 0 9.057 2.654c10.869 0 16.812-9.003 16.812-16.811 0-.257-.006-.511-.017-.765A12.01 12.01 0 0 0 32.4 9.971c-1.06.47-2.198.787-3.394.93z" fill="#FFF" fill-rule="evenodd"/></svg>
